SF_Symbols/speaker.slash.svg

<?xml version="1.0" encoding="UTF-8"?>
<svg xmlns="http://www.w3.org/2000/svg" xmlns:xlink="http://www.w3.org/1999/xlink" width="24" height="24" viewBox="0 0 24 24" version="1.1">
<g id="surface1">
<path style=" stroke:none;fill-rule:nonzero;fill:rgb(100%,100%,100%);fill-opacity:1;" d="M 6.046875 15.808594 L 9.398438 15.808594 C 9.507812 15.808594 9.601562 15.84375 9.679688 15.914062 L 14.964844 20.648438 C 15.253906 20.898438 15.515625 21.082031 15.75 21.199219 C 15.984375 21.324219 16.242188 21.386719 16.523438 21.386719 C 16.75 21.386719 16.957031 21.335938 17.144531 21.234375 C 17.332031 21.132812 17.492188 20.980469 17.625 20.777344 L 16.265625 19.429688 L 10.605469 14.355469 C 10.488281 14.246094 10.382812 14.175781 10.289062 14.144531 C 10.195312 14.113281 10.074219 14.097656 9.925781 14.097656 L 6.128906 14.097656 C 5.910156 14.097656 5.746094 14.046875 5.636719 13.945312 C 5.535156 13.84375 5.484375 13.683594 5.484375 13.464844 L 5.484375 8.636719 L 4.078125 7.230469 C 3.9375 7.417969 3.832031 7.644531 3.761719 7.910156 C 3.691406 8.175781 3.65625 8.480469 3.65625 8.824219 L 3.65625 13.3125 C 3.65625 14.15625 3.855469 14.785156 4.253906 15.199219 C 4.652344 15.605469 5.25 15.808594 6.046875 15.808594 Z M 17.847656 14.085938 L 17.847656 2.097656 C 17.847656 1.714844 17.71875 1.390625 17.460938 1.125 C 17.210938 0.851562 16.890625 0.714844 16.5 0.714844 C 16.21875 0.714844 15.96875 0.78125 15.75 0.914062 C 15.539062 1.046875 15.277344 1.25 14.964844 1.523438 L 9.84375 6.070312 L 11.097656 7.335938 L 15.667969 3.1875 C 15.699219 3.15625 15.730469 3.132812 15.761719 3.117188 C 15.792969 3.101562 15.828125 3.09375 15.867188 3.09375 C 15.96875 3.09375 16.019531 3.148438 16.019531 3.257812 L 16.019531 12.257812 Z M 21.667969 22.617188 C 21.839844 22.796875 22.050781 22.886719 22.300781 22.886719 C 22.558594 22.886719 22.769531 22.796875 22.933594 22.617188 C 23.113281 22.4375 23.203125 22.222656 23.203125 21.972656 C 23.203125 21.730469 23.113281 21.519531 22.933594 21.339844 L 2.871094 1.277344 C 2.691406 1.105469 2.476562 1.019531 2.226562 1.019531 C 1.976562 1.011719 1.761719 1.097656 1.582031 1.277344 C 1.410156 1.449219 1.324219 1.664062 1.324219 1.921875 C 1.324219 2.171875 1.410156 2.382812 1.582031 2.554688 Z M 21.667969 22.617188 "/>
</g>
</svg>

<svg xmlns="http://www.w3.org/2000/svg" width="24" height="24"><path style="stroke:none;fill-rule:nonzero;fill:#fff;fill-opacity:1" d="M6.047 15.809h3.351c.11 0 .204.035.282.105l5.285 4.734c.289.25.55.434.785.551.234.125.492.188.773.188.227 0 .434-.051.622-.153.187-.101.347-.254.48-.457l-1.36-1.347-5.66-5.075a.956.956 0 0 0-.316-.21 1.147 1.147 0 0 0-.363-.047H6.129c-.219 0-.383-.051-.492-.153-.102-.101-.153-.261-.153-.48V8.637L4.078 7.23c-.14.188-.246.415-.316.68-.07.266-.106.57-.106.914v4.489c0 .843.2 1.472.598 1.886.398.406.996.61 1.793.61Zm11.8-1.723V2.098c0-.383-.128-.707-.386-.973-.25-.273-.57-.41-.961-.41-.281 0-.531.066-.75.2-.21.132-.473.335-.785.608L9.844 6.07l1.254 1.266 4.57-4.149a.42.42 0 0 1 .094-.07.245.245 0 0 1 .105-.023c.102 0 .153.054.153.164v9Zm3.821 8.531c.172.18.383.27.633.27.258 0 .469-.09.633-.27a.873.873 0 0 0 .27-.644.848.848 0 0 0-.27-.633L2.87 1.277a.906.906 0 0 0-.644-.257.834.834 0 0 0-.645.257.863.863 0 0 0-.258.645c0 .25.086.46.258.633Zm0 0"/></svg>
